packages/icons/svg/Fill/cloud-upload.svg

<svg fill="none" height="24" viewBox="0 0 24 24" width="24" xmlns="http://www.w3.org/2000/svg"><path clip-rule="evenodd" d="m21.846 11.8274c.0213.068.0427.1361.0568.2068.062.313.097.635.097.966 0 .308-.036.611-.092.91-.0124.0682-.029.1335-.0457.1989-.0076.0296-.0151.0592-.0223.0891-.05.199-.109.394-.182.585-.038.099-.077.196-.121.292-.087.19-.188.372-.299.551-.0172.0278-.0336.056-.05.0841-.0274.047-.0547.0939-.086.1389-.0091.013-.0169.0265-.0246.0398-.0083.0144-.0165.0287-.0264.0422-.0077.0111-.0185.0182-.0291.0251-.0086.0057-.0172.0113-.0239.0189-.912 1.222-2.356 2.025-3.998 2.025h-3v-1.267c.301.174.643.267 1 .267.534 0 1.036-.208 1.414-.586.78-.779.78-2.049 0-2.828l-3-3c-.376-.377-.878-.585-1.412-.585-.519 0-1.012.197-1.388.556l-3.003 2.9c-.793.766-.815 2.035-.049 2.828.376.389.9.612 1.44.612.355 0 .697-.093.998-.267v1.37h-3c-1.642 0-3.086-.803-3.997-2.025-.00701-.0074-.01555-.0129-.02411-.0185-.01099-.0071-.02202-.0142-.02989-.0255-.01057-.0144-.01929-.0298-.02805-.0453-.00697-.0123-.01397-.0247-.02195-.0367-.03192-.0459-.06017-.0939-.08839-.1419-.01599-.0271-.03197-.0543-.04861-.0811-.11-.179-.212-.361-.299-.551-.04258-.0929-.07955-.1867-.11724-.2824l-.00376-.0096c-.072-.191-.132-.386-.181-.585-.00632-.0253-.01286-.0504-.01938-.0754-.01823-.07-.03636-.1397-.04962-.2126-.055-.299-.092-.602-.092-.91 0-.331.036-.653.097-.966.01458-.0728.03678-.1429.05898-.2129.01283-.0405.02566-.081.03702-.1221.00418-.0153.00835-.0307.01252-.046.04767-.1758.09535-.3515.16248-.518.03622-.0905.08069-.1752.1253-.2602.01943-.0371.03889-.0741.0577-.1118.0064-.0127.01278-.0254.01915-.0381.07027-.1399.1395-.2777.22385-.4089.06377-.1009.13602-.1939.20831-.2871.01727-.0222.03454-.0445.05169-.06686l.00355-.00455c.09679-.12446.19277-.24786.30045-.36345.09648-.10404.20011-.19734.30497-.29176.00601-.00541.01202-.01082.01803-.01624.118-.106.238-.20799.366-.302.119-.08799.241-.168.368-.244.14-.086.283-.163.431-.234.13-.063.26-.12.396-.171.162-.062.329-.111.499-.155.135-.036.267-.071.407-.094.02643-.00484.05207-.01182.07771-.01879.03259-.00887.06516-.01773.09929-.02221.821-2.384 3.095-4.045 5.675-4.045 2.581 0 4.855 1.661 5.675 4.045.0342.00449.0672.01338.1001.02226.0258.00696.0516.01391.0779.01874.139.023.272.058.406.094.17.044.337.093.499.155.136.051.267.108.396.171.148.071.291.148.431.234.127.076.25.15601.369.244.127.09401.247.196.365.302.112.1.221.198.324.308.109.117.206.242.303.368.0127.01636.0254.03265.0381.04896.0773.0991.1542.1977.2229.305.0831.1306.152.2679.222.4073.0067.0132.0133.0265.02.0397.0188.0377.0383.0747.0577.1118.0446.085.0891.1697.1253.2602.0683.167.1161.3433.1639.5195.004.0149.0081.0297.0121.0445.0115.0431.0249.0856.0382.1282zm-10.541-.5474c.394-.376 1.017-.373 1.402.013l3 3c.391.391.391 1.023 0 1.414-.195.195-.451.293-.707.293s-.512-.098-.707-.293l-1.293-1.293v5.586c0 .553-.448 1-1 1s-1-.447-1-1v-5.644l-1.30499 1.26c-.397.385-1.03.372-1.414-.025-.384-.398-.373-1.03.024-1.414z" fill="#6b7280" fill-rule="evenodd"/></svg>

<svg width="24" height="24" viewBox="0 0 24 24" fill="none" xmlns="http://www.w3.org/2000/svg">
<g id="Icon/Fill/cloud-upload">
<path id="Mask" fill-rule="evenodd" clip-rule="evenodd" d="M21.8459 11.8273C21.8673 11.8953 21.8886 11.9634 21.9028 12.0342C21.9648 12.3472 21.9998 12.6692 21.9998 13.0002C21.9998 13.3082 21.9638 13.6112 21.9078 13.9102C21.8954 13.9783 21.8787 14.0437 21.862 14.1091C21.8545 14.1387 21.8469 14.1683 21.8398 14.1982C21.7898 14.3972 21.7308 14.5922 21.6578 14.7832C21.6198 14.8822 21.5808 14.9792 21.5368 15.0752C21.4498 15.2652 21.3488 15.4472 21.2378 15.6262C21.2205 15.6539 21.2041 15.6821 21.1877 15.7103C21.1604 15.7572 21.133 15.8042 21.1018 15.8492C21.0926 15.8622 21.0849 15.8756 21.0772 15.8889C21.0689 15.9034 21.0606 15.9177 21.0508 15.9312C21.043 15.9422 21.0323 15.9493 21.0217 15.9563C21.013 15.9619 21.0045 15.9676 20.9978 15.9752C20.0858 17.1972 18.6418 18.0002 16.9998 18.0002H13.9998V16.7332C14.3008 16.9072 14.6428 17.0002 14.9998 17.0002C15.5338 17.0002 16.0358 16.7922 16.4138 16.4142C17.1938 15.6352 17.1938 14.3652 16.4138 13.5862L13.4138 10.5862C13.0378 10.2092 12.5358 10.0012 12.0018 10.0012C11.4828 10.0012 10.9898 10.1982 10.6138 10.5572L7.61076 13.4572C6.81776 14.2232 6.79576 15.4922 7.56176 16.2852C7.93776 16.6742 8.46176 16.8972 9.00176 16.8972C9.35676 16.8972 9.69876 16.8042 9.99976 16.6302V18.0002H6.99976C5.35776 18.0002 3.91376 17.1972 3.00276 15.9752C2.99575 15.9677 2.9872 15.9622 2.97864 15.9567C2.96765 15.9496 2.95662 15.9424 2.94876 15.9312C2.93818 15.9167 2.92946 15.9013 2.92071 15.8858C2.91373 15.8735 2.90674 15.8612 2.89876 15.8492C2.86684 15.8032 2.83859 15.7552 2.81036 15.7073C2.79437 15.6801 2.77839 15.6529 2.76176 15.6262C2.65176 15.4472 2.54976 15.2652 2.46276 15.0752C2.42017 14.9823 2.3832 14.8884 2.34551 14.7927L2.34176 14.7832C2.26976 14.5922 2.20976 14.3972 2.16076 14.1982C2.15443 14.1729 2.14789 14.1478 2.14137 14.1227C2.12315 14.0527 2.10501 13.9831 2.09176 13.9102C2.03676 13.6112 1.99976 13.3082 1.99976 13.0002C1.99976 12.6692 2.03576 12.3472 2.09676 12.0342C2.11133 11.9613 2.13353 11.8913 2.15573 11.8212C2.16857 11.7807 2.1814 11.7402 2.19276 11.6992C2.19694 11.6838 2.2011 11.6685 2.20527 11.6531C2.25294 11.4774 2.30062 11.3016 2.36776 11.1352C2.40398 11.0446 2.44845 10.9599 2.49305 10.8749C2.51249 10.8379 2.53194 10.8008 2.55076 10.7632C2.55716 10.7505 2.56353 10.7378 2.5699 10.7251C2.64018 10.5851 2.7094 10.4473 2.79376 10.3162C2.85753 10.2153 2.92977 10.1222 3.00207 10.029C3.01933 10.0068 3.0366 9.98454 3.05376 9.96218L3.0573 9.95763C3.1541 9.83317 3.25007 9.70977 3.35776 9.59418C3.45423 9.49014 3.55787 9.39683 3.66273 9.30241C3.66874 9.29701 3.67475 9.2916 3.68076 9.28618C3.79876 9.18018 3.91876 9.07818 4.04676 8.98418C4.16576 8.89618 4.28776 8.81618 4.41476 8.74018C4.55476 8.65418 4.69776 8.57718 4.84576 8.50618C4.97576 8.44318 5.10576 8.38618 5.24176 8.33518C5.40376 8.27318 5.57076 8.22418 5.74076 8.18018C5.87576 8.14418 6.00776 8.10918 6.14776 8.08618C6.17418 8.08134 6.19983 8.07436 6.22547 8.06739C6.25805 8.05852 6.29062 8.04966 6.32476 8.04518C7.14576 5.66118 9.41976 4.00018 11.9998 4.00018C14.5808 4.00018 16.8548 5.66118 17.6748 8.04518C17.709 8.04967 17.7419 8.05856 17.7748 8.06744C17.8006 8.0744 17.8264 8.08135 17.8528 8.08618C17.9918 8.10918 18.1248 8.14418 18.2588 8.18018C18.4288 8.22418 18.5958 8.27318 18.7578 8.33518C18.8938 8.38618 19.0248 8.44318 19.1538 8.50618C19.3018 8.57718 19.4448 8.65418 19.5848 8.74018C19.7118 8.81618 19.8348 8.89618 19.9538 8.98418C20.0808 9.07818 20.2008 9.18018 20.3188 9.28618C20.4308 9.38618 20.5398 9.48418 20.6428 9.59418C20.7518 9.71118 20.8488 9.83618 20.9458 9.96218C20.9584 9.97854 20.9711 9.99483 20.9838 10.0111C21.0612 10.1103 21.138 10.2088 21.2068 10.3162C21.2899 10.4468 21.3588 10.584 21.4288 10.7234C21.4354 10.7367 21.4421 10.7499 21.4488 10.7632C21.4676 10.8008 21.487 10.8379 21.5065 10.8749C21.5511 10.9599 21.5955 11.0446 21.6318 11.1352C21.7 11.3021 21.7479 11.4784 21.7957 11.6547C21.7997 11.6695 21.8037 11.6844 21.8078 11.6992C21.8193 11.7423 21.8326 11.7848 21.8459 11.8273ZM11.305 11.28C11.699 10.904 12.322 10.907 12.707 11.293L15.707 14.293C16.098 14.684 16.098 15.316 15.707 15.707C15.512 15.902 15.256 16 15 16C14.744 16 14.488 15.902 14.293 15.707L13 14.414V20C13 20.553 12.552 21 12 21C11.448 21 11 20.553 11 20V14.356L9.69496 15.616C9.29796 16.001 8.66496 15.988 8.28096 15.591C7.89696 15.193 7.90796 14.561 8.30496 14.177L11.305 11.28Z" fill="#000000"/>
</g>
</svg>
